X:0613
T:Miss Campbell of Saddell's Reel.
M:2/4
L:1/8
Q:1/4=104
N:something seriously wrong here
I: :: ||
Z:Jack Campin * www.campin.me.uk * 2009
K:G
g>GB>G|g>GB>G|(3FAD (3FAD|g>G`B>G|g>GB>G|  c>de>c|EAFD|G2G2:|
G>Bd>G|g<Bd<B|  G<Bd<B   |F<A`A2 |G<Bd<B|(3EFG (3AFD|G2G2|]

